common/app/assets/images/global/image-inverted.svg

<svg xmlns="http://www.w3.org/2000/svg" width="12" height="9"><g fill="#ccc"><path d="M7.559 3.359c-.771 0-1.396.618-1.396 1.391 0 .775.635 1.402 1.403 1.402.771 0 1.395-.627 1.395-1.402 0-.773-.634-1.391-1.402-1.391z"/><path d="M11.589 1.175l-1.233.002-.551-1.177h-4.355l-.537 1.177h-1.644v-.621h-2.466l-.001.621h-.381l-.011-.002c-.226 0-.41.187-.41.416v6.356c0 .227.184.416.41.623h11.179c.225-.207.411-.396.411-.623v-6.356c0-.229-.186-.416-.411-.416zm-4.023 6.405c-1.562 0-2.832-1.27-2.832-2.83 0-1.554 1.266-2.819 2.822-2.819 1.562 0 2.832 1.265 2.832 2.819.001 1.561-1.265 2.83-2.822 2.83z"/></g></svg>

<?xml version="1.0" encoding="utf-8"?>
<!-- Generator: Adobe Illustrator 15.0.2, SVG Export Plug-In . SVG Version: 6.00 Build 0)  -->
<!DOCTYPE svg PUBLIC "-//W3C//DTD SVG 1.1//EN" "http://www.w3.org/Graphics/SVG/1.1/DTD/svg11.dtd">
<svg version="1.1" id="Layer_1" xmlns="http://www.w3.org/2000/svg" xmlns:xlink="http://www.w3.org/1999/xlink" x="0px" y="0px"
	 width="12px" height="9px" viewBox="0 0 12 9" enable-background="new 0 0 12 9" xml:space="preserve">
<g>
	<path fill="#CCCCCC" d="M7.559,3.359c-0.771,0-1.396,0.618-1.396,1.391c0,0.775,0.635,1.402,1.403,1.402
		c0.771,0,1.395-0.627,1.395-1.402C8.961,3.977,8.327,3.359,7.559,3.359z"/>
	<path fill="#CCCCCC" d="M11.589,1.175l-1.233,0.002L9.805,0H5.45L4.913,1.177H3.269V0.556H0.803L0.802,1.177H0.421
		c-0.004,0-0.007-0.002-0.011-0.002C0.184,1.175,0,1.362,0,1.591v6.356C0,8.174,0.184,8.363,0.41,8.57h11.179
		C11.814,8.363,12,8.174,12,7.947V1.591C12,1.362,11.814,1.175,11.589,1.175z M7.566,7.58c-1.562,0-2.832-1.27-2.832-2.83
		c0-1.554,1.266-2.819,2.822-2.819c1.562,0,2.832,1.265,2.832,2.819C10.389,6.311,9.123,7.58,7.566,7.58z"/>
</g>
</svg>
